src/assets/icons/customer-support.svg

<svg width="24" height="24" viewBox="0 0 24 24" fill="none" xmlns="http://www.w3.org/2000/svg">
<!-- Headset arc -->
<path d="M18.0094 11.6047C18.0094 7.68087 14.8285 4.5 10.9047 4.5C6.98087 4.5 3.8 7.68087 3.8 11.6047" stroke="#314158" stroke-width="1.5" stroke-linecap="round"/>
<!-- Right earpiece bottom -->
<path d="M18.75 17.523C16.562 17.523 14.6084 17.313 13.3248 18.149C12.3404 18.789 11.75 19.608 11.75 20.5L11.75 21" stroke="#314158" stroke-width="1.5" stroke-linecap="round"/>
<!-- Left ear -->
<path d="M7.763 14.342C7.763 15.388 7.763 17.184 5.632 17.184C3.5 17.184 3.5 15.388 3.5 14.342C3.5 13.296 3.5 11.5 5.632 11.5C7.763 11.5 7.763 13.296 7.763 14.342Z" stroke="#314158" stroke-width="1.5" stroke-linecap="round"/>
<!-- Right ear -->
<path d="M18.513 14.342C18.513 15.388 18.513 17.184 16.381 17.184C14.25 17.184 14.25 15.388 14.25 14.342C14.25 13.296 14.25 11.5 16.381 11.5C18.513 11.5 18.513 13.296 18.513 14.342Z" stroke="#314158" stroke-width="1.5" stroke-linecap="round"/>
<!-- Microphone -->
<path d="M11.75 21.5C11.75 22.236 11.75 23.5 10.75 23.5C9.75 23.5 9.75 22.236 9.75 21.5C9.75 20.764 9.75 19.5 10.75 19.5C11.75 19.5 11.75 20.764 11.75 21.5Z" fill="#314158" stroke="#314158" stroke-width="1.5" stroke-linecap="round"/>
</svg>

<svg fill="none" viewBox="0 0 24 24"><path stroke="currentColor" stroke-linecap="round" stroke-width="1.5" d="M18.01 11.605a7.105 7.105 0 0 0-14.21 0M18.75 17.523c-2.188 0-4.142-.21-5.425.626-.985.64-1.575 1.459-1.575 2.351v.5"/><path stroke="currentColor" stroke-linecap="round" stroke-width="1.5" d="M7.763 14.342c0 1.046 0 2.842-2.131 2.842-2.132 0-2.132-1.796-2.132-2.842s0-2.842 2.132-2.842c2.131 0 2.131 1.796 2.131 2.842ZM18.513 14.342c0 1.046 0 2.842-2.132 2.842-2.131 0-2.131-1.796-2.131-2.842s0-2.842 2.131-2.842c2.132 0 2.132 1.796 2.132 2.842Z"/><path fill="currentColor" stroke="currentColor" stroke-linecap="round" stroke-width="1.5" d="M11.75 21.5c0 .736 0 2-1 2s-1-1.264-1-2 0-2 1-2 1 1.264 1 2Z"/></svg>
